!!!ONB: MCCC : IJB0065_06 : Extracted Monophonic Melody
!!!COM: Bach, Johann Sebastian
!!!OPR: Cello Suite No.3
!!!OMV: 6
!!!SCT: BWV 1009
!!!ODT: 1717///
**kern
*thru
*staff1
*clefF4
*k[b-e-a-]
*c:
*M2/2
*>A
8c
8d
=1
4e-
8d
8c
4B
4c
=2
8d
8c
8B
8A
8G
8F
8E-
8D
=3
8E-
8G
8F
8E-
8D
8F
8E-
8D
=4
8C
8BB
8C
8D
8E-
8F
8G
8A
=5
4B-
8A-
8G
4F
4E-
=6
8D
8E-
8F
8G
8A-
8B-
8c
8d
=7
4e-
8d
8c
8B-
8A-
8G
8F
=8
2.E-
*>A
8c
8d
=1
4e-
8d
8c
4B
4c
=2
8d
8c
8B
8A
8G
8F
8E-
8D
=3
8E-
8G
8F
8E-
8D
8F
8E-
8D
=4
8C
8BB
8C
8D
8E-
8F
8G
8A
=5
4B-
8A-
8G
4F
4E-
=6
8D
8E-
8F
8G
8A-
8B-
8c
8d
=7
4e-
8d
8c
8B-
8A-
8G
8F
=8
2.E-
*>B
8E-
8F
=9
4G
8G
8F
4G
4A
=10
8B-
8A
8B-
8c
8B-
8c
8d
8B-
=11
8G
8B-
8A
8B-
8c
8B-
8A
8G
=12
4F#
8E
8F#
4D
8d
8c
=13
4d
8E-
8D
4E-
4G
=14
8c
8B
8c
8d
4e-
4d
=15
8c
8B-
8A
8G
8B-
8A
8G
8F#
=16
4G
4D
4GG
8G
8A-
=17
4B-
8A-
8G
8F
8E
8F
8G
=18
8B-
8A-
8G
8F
2d[
=19
8d]
8B
8c
8d
8e-
8d
8c
8e-
=20
8d
8c
8B
8A
8G
8F
8E-
8D
=21
8E-
8D
8F
8E-
8G
8F
8A-
8G
=22
8GG
8AA
8BB
8C
8D
8E-
8F
8D
=23
8F
8E-
8D
8C
8E-
8D
8C
8BB
=24
2.C
*>B
8E-
8F
=9
4G
8G
8F
4G
4A
=10
8B-
8A
8B-
8c
8B-
8c
8d
8B-
=11
8G
8B-
8A
8B-
8c
8B-
8A
8G
=12
4F#
8E
8F#
4D
8d
8c
=13
4d
8E-
8D
4E-
4G
=14
8c
8B
8c
8d
4e-
4d
=15
8c
8B-
8A
8G
8B-
8A
8G
8F#
=16
4G
4D
4GG
8G
8A-
=17
4B-
8A-
8G
8F
8E
8F
8G
=18
8B-
8A-
8G
8F
2d[
=19
8d]
8B
8c
8d
8e-
8d
8c
8e-
=20
8d
8c
8B
8A
8G
8F
8E-
8D
=21
8E-
8D
8F
8E-
8G
8F
8A-
8G
=22
8GG
8AA
8BB
8C
8D
8E-
8F
8D
=23
8F
8E-
8D
8C
8E-
8D
8C
8BB
=24
2.C
==
*-
